src/assets/power/logout.svg

<svg xmlns="http://www.w3.org/2000/svg" width="24" height="24" version="1">
  <circle style="opacity:0.2" cx="12" cy="12.5" r="10" />
  <circle style="fill:#4caf50" cx="12" cy="12" r="10" />
  <path style="opacity:0.2;fill:#ffffff"
    d="m 12,2 a 10,10 0 0 0 -10,10 10,10 0 0 0 0.01075,0.291 10,10 0 0 1 9.989,-9.791 10,10 0 0 1 9.9895,9.709 10,10 0 0 0 0.0105,-0.209 10,10 0 0 0 -10,-10 z" />
  <path style="opacity:0.2"
    d="m 11.81836,5.5027007 c -0.209035,0.00578 -0.417466,0.020695 -0.625,0.044925 -1.660273,0.193856 -3.2511375,0.974929 -4.431641,2.304737 -2.3610074,2.6596163 -2.3473051,6.6871943 0.032225,9.3302783 2.3795365,2.643085 6.387181,3.083813 9.284179,1.019553 1.089858,-0.774228 -0.07499,-2.406614 -1.163085,-1.629917 C 12.834271,18.054929 9.9923015,17.744091 8.2832015,15.845699 6.574102,13.947305 6.5639725,11.090784 8.2597665,9.1805162 9.955557,7.2702507 12.795643,6.9379812 14.88672,8.4060852 15.98474,9.2071856 17.165022,7.5307491 16.039063,6.7693312 14.765345,5.8750772 13.281598,5.4622634 11.81836,5.5027007 Z M 16,8.9998462 v 2.5000548 h -3 c -0.552285,0 -1,0.447725 -1,1.000021 0,0.552296 0.447715,1.000021 1,1.000021 h 3 v 2.500054 l 4.5,-3.500075 z" />
  <path style="fill:#ffffff"
    d="m 11.81836,5.0026295 c -0.209035,0.00578 -0.417466,0.020695 -0.625,0.044925 -1.660273,0.193856 -3.2511375,0.974929 -4.431641,2.304737 -2.3610074,2.6596155 -2.3473051,6.6871935 0.032225,9.3302775 2.3795365,2.643085 6.387181,3.083813 9.284179,1.019553 1.089858,-0.774228 -0.07499,-2.406614 -1.163085,-1.629917 C 12.834271,17.554857 9.9923015,17.244019 8.2832015,15.345627 6.574102,13.447233 6.5639725,10.590712 8.2597665,8.680445 9.955557,6.7701795 12.795643,6.43791 14.88672,7.906014 15.98474,8.7071144 17.165022,7.0306779 16.039063,6.26926 14.765345,5.375006 13.281598,4.9621922 11.81836,5.0026295 Z M 16,8.499775 v 2.500054 h -3 c -0.552285,0 -1,0.447725 -1,1.000021 0,0.552296 0.447715,1.000021 1,1.000021 h 3 v 2.500054 l 4.5,-3.500075 z" />
</svg>

<svg width="24" height="24" viewBox="0 0 24 24" fill="none" xmlns="http://www.w3.org/2000/svg">
  <path opacity="0.2"
    d="M12 23.25C18.0061 23.25 22.875 18.3811 22.875 12.375C22.875 6.3689 18.0061 1.5 12 1.5C5.9939 1.5 1.125 6.3689 1.125 12.375C1.125 18.3811 5.9939 23.25 12 23.25Z"
    fill="black" />
  <path
    d="M12 22.875C18.0061 22.875 22.875 18.0061 22.875 12C22.875 5.9939 18.0061 1.125 12 1.125C5.9939 1.125 1.125 5.9939 1.125 12C1.125 18.0061 5.9939 22.875 12 22.875Z"
    fill="#4CAF50" />
  <path opacity="0.2"
    d="M12 1.125C9.11577 1.125 6.34967 2.27076 4.31021 4.31021C2.27076 6.34967 1.125 9.11577 1.125 12C1.12668 12.0611 1.12888 12.1221 1.13159 12.1831C1.18188 9.3334 2.3489 6.61734 4.38151 4.61938C6.41412 2.62143 9.14985 1.50128 12 1.5C14.85 1.50206 17.5853 2.62285 19.6174 4.62119C21.6494 6.61954 22.8158 9.33572 22.8655 12.1853C22.8692 12.1236 22.8724 12.0618 22.875 12C22.875 9.11577 21.7292 6.34967 19.6898 4.31021C17.6503 2.27076 14.8842 1.125 12 1.125Z"
    fill="white" />
  <path opacity="0.2"
    d="M11.8183 5.5027C11.6092 5.50848 11.4008 5.5234 11.1933 5.54763C9.533 5.74148 7.94213 6.52256 6.76163 7.85237C4.40062 10.512 4.41433 14.5396 6.79386 17.1826C9.17339 19.8257 13.181 20.2665 16.078 18.2022C17.1679 17.428 16.003 15.7956 14.9149 16.5723C12.8342 18.0549 9.99221 17.7441 8.28311 15.8457C6.57401 13.9473 6.56388 11.0908 8.25968 9.18052C9.95547 7.27025 12.7956 6.93798 14.8866 8.40609C15.9847 9.20719 17.1649 7.53075 16.039 6.76933C14.7653 5.87508 13.2815 5.46227 11.8183 5.5027ZM15.9999 8.99985V11.4999H12.9999C12.4476 11.4999 11.9999 11.9476 11.9999 12.4999C11.9999 13.0522 12.4476 13.4999 12.9999 13.4999H15.9999V16L20.4999 12.4999L15.9999 8.99985Z"
    fill="black" />
  <path
    d="M11.8183 5.0027C11.6092 5.00848 11.4008 5.0234 11.1933 5.04763C9.533 5.24148 7.94213 6.02256 6.76163 7.35237C4.40062 10.012 4.41433 14.0396 6.79386 16.6826C9.17339 19.3257 13.181 19.7665 16.078 17.7022C17.1679 16.928 16.003 15.2956 14.9149 16.0723C12.8342 17.5549 9.99221 17.2441 8.28311 15.3457C6.57401 13.4473 6.56388 10.5908 8.25968 8.68052C9.95547 6.77025 12.7956 6.43798 14.8866 7.90609C15.9847 8.70719 17.1649 7.03075 16.039 6.26933C14.7653 5.37508 13.2815 4.96227 11.8183 5.0027ZM15.9999 8.49985V10.9999H12.9999C12.4476 10.9999 11.9999 11.4476 11.9999 11.9999C11.9999 12.5522 12.4476 12.9999 12.9999 12.9999H15.9999V15.5L20.4999 11.9999L15.9999 8.49985Z"
    fill="white" />
</svg>
